Carto/POI/SVG/enter-venue_solid_24px.svg

<svg width="24" height="24" viewBox="0 0 24 24" fill="none" xmlns="http://www.w3.org/2000/svg">
<path d="M5 5.99998L12 10.5V12.5L5 17L6 13H2V9.99998H6L5 5.99998ZM22 6.38998V17.61C22.0013 18.0186 21.8774 18.4179 21.645 18.754C21.4126 19.0901 21.0828 19.347 20.7 19.49L15.35 21.49C15.1993 21.5463 15.0372 21.5654 14.8775 21.5457C14.7178 21.526 14.5652 21.468 14.4327 21.3767C14.3002 21.2855 14.1916 21.1635 14.1163 21.0213C14.041 20.8792 14.0011 20.7209 14 20.56V3.43998C14.0011 3.27907 14.041 3.1208 14.1163 2.9786C14.1916 2.83641 14.3002 2.7145 14.4327 2.62321C14.5652 2.53192 14.7178 2.47396 14.8775 2.45425C15.0372 2.43454 15.1993 2.45365 15.35 2.50998L20.7 4.50998C21.0828 4.653 21.4126 4.90985 21.645 5.24597C21.8774 5.58208 22.0013 5.98133 22 6.38998ZM18 9.99998H16V13H18V9.99998Z" fill="#0F1621"/>
</svg>

<svg xmlns="http://www.w3.org/2000/svg" width="24" height="24" viewBox="0 0 24 24"><rect width="24" height="24" style="fill:none"/><path d="M5,6l7,4.5v2L5,17l1-4H2V10H6Zm17,.39V17.61a2,2,0,0,1-1.3,1.88l-5.35,2A1,1,0,0,1,14,20.56V3.44a1,1,0,0,1,1.35-.93l5.35,2A2,2,0,0,1,22,6.39ZM18,10H16v3h2Z"/></svg>
